X:508
T: WIR GNIESSEN DIE HIMMLISCHEN FREUDEN
N: E1765
O: Europa, Mitteleuropa, Deutschland, Bayern
R: Luegen - Lied, Schlaraffenland
M: 6/8
L: 1/8
K: D
A | dcBABG | F2GA2
B | AGFEFD | C2DE2
A | ^GABBcA | ^GABBc
d | cBABA^G | A3z2
A | EEFGEC | D2EF2
A | BAGFED | C2DE2
c | dBcdBc | dBcdc
B | AGFGEA | D3z2

